X: 1011
T: Missa Quinti toni Crucifixus Credo
C: Giovanni Perluigi da Palestrina
L: 1/4
M: 4/2
N: Derived from Credo_41_b.krn
Q: "Credo"
%%staves [1 2 3 4]
V: 1 clef=treble
V: 2 clef=treble
V: 3 clef=treble
V: 4 clef=treble-8
K: F
[V:1] c6c2 | 
[V:2] z8 | 
[V:3] z4F4- | 
[V:4] z8 | 
[V:1] d4e4 | 
[V:2] z8 | 
[V:3] F2F2G4 | 
[V:4] z8 | 
[V:1] z2c4c2 | 
[V:2] z8 | 
[V:3] A4z2F2- | 
[V:4] z8 | 
[V:1] d2e2f4 | 
[V:2] z8 | 
[V:3] F2G2A2B2 | 
[V:4] z8 | 
[V:1] edcBAGFG | 
[V:2] z4c4- | 
[V:3] cBAGFGA2- | 
[V:4] z8 | 
[V:1] ABc4=B2 | 
[V:2] c2c2d4 | 
[V:3] AGE2F2G2 | 
[V:4] z8 | 
[V:1] c2g2>f2ed | 
[V:2] e4z2c2- | 
[V:3] C4c3B | 
[V:4] z8 | 
[V:1] cBAGABc2- | 
[V:2] c2c2d2e2 | 
[V:3] AGFED2C2 | 
[V:4] z8 | 
[V:1] c2=B2c4 | 
[V:2] f4e4 | 
[V:3] D4C4 | 
[V:4] z8 | 
[V:1] e4f4- | 
[V:2] c4c4- | 
[V:3] G4A4- | 
[V:4] c4f4- | 
[V:1] f2d2d2c2 | 
[V:2] c2B2B2G2 | 
[V:3] A2F2F2E2 | 
[V:4] f2B2B2c2 | 
[V:1] B4A4 | 
[V:2] d4d2f2- | 
[V:3] G4F2A2- | 
[V:4] G4d2d2- | 
[V:1] z8 | 
[V:2] f2e2d2c2 | 
[V:3] A2A2B2A2 | 
[V:4] d2c2B2f2 | 
[V:1] z2f4e2 | 
[V:2] B2>A2G2G2 | 
[V:3] G2F2c4 | 
[V:4] B4c4 | 
[V:1] d2c2B3A | 
[V:2] F2A2d4 | 
[V:3] A4G2F2 | 
[V:4] F2F2B4 | 
[V:1] G2F2G4 | 
[V:2] c4c4 | 
[V:3] E2F2>E2ED/ E/ | 
[V:4] c4c4 | 
[V:1] A4z2c2 | 
[V:2] c4f4 | 
[V:3] F4z2A2 | 
[V:4] F4z2f2 | 
[V:1] d2c2c4 | 
[V:2] f2f2e4 | 
[V:3] B2A2G4 | 
[V:4] d2f2c4 | 
[V:1] c2A2>A2A2 | 
[V:2] e2d2>f2e2 | 
[V:3] G2F2>D2E2 | 
[V:4] c2d2>d2^c2 | 
[V:1] A4B2G2 | 
[V:2] d4d4- | 
[V:3] ^F4G4 | 
[V:4] d4G2g2 | 
[V:1] A2B2c2d2- | 
[V:2] d4z4 | 
[V:3] z8 | 
[V:4] f2d2e2f2- | 
[V:1] dcc4=B2 | 
[V:2] z2g2f2d2 | 
[V:3] z4z2F2 | 
[V:4] feed/ c/d4 | 
[V:1] c8 | 
[V:2] e2f2>e2ed/ c/ | 
[V:3] G2A2G2c2- | 
[V:4] c8 | 
[V:1] G4G2c2- | 
[V:2] d4c4 | 
[V:3] c=B/ A/B2c4 | 
[V:4] z4c4 | 
[V:1] c2A2A2d2- | 
[V:2] z2c2c2f2- | 
[V:3] z8 | 
[V:4] c2f4d2 | 
[V:1] dcBAB2G2 | 
[V:2] f2d2d2g2- | 
[V:3] z8 | 
[V:4] d2g2>f2ed | 
[V:1] g2>f2edcB | 
[V:2] gfedcBAG | 
[V:3] z8 | 
[V:4] c2>d2e2f2- | 
[V:1] A2B2c4 | 
[V:2] F2f4e2 | 
[V:3] z2F2G2G2 | 
[V:4] fed2c4 | 
[V:1] z2c2c2d2 | 
[V:2] f2F2A2=B2 | 
[V:3] A2>G2F2G2 | 
[V:4] F4z4 | 
[V:1] e2>d2c2f2- | 
[V:2] c2>B2A4 | 
[V:3] C4F3G | 
[V:4] z8 | 
[V:1] fedcdcBA | 
[V:2] z8 | 
[V:3] AG2<B2AGF | 
[V:4] z4B4 | 
[V:1] G2>A2B2A2 | 
[V:2] z8 | 
[V:3] EF2<G2FF2- | 
[V:4] c2c2d3c | 
[V:1] G4A4 | 
[V:2] z4z2c2 | 
[V:3] F2E2F2A2 | 
[V:4] B2c2F2f2 | 
[V:1] z8 | 
[V:2] f2>f2e2d2 | 
[V:3] A2>A2A2B2 | 
[V:4] d2>d2c2B2 | 
[V:1] z4z2c2 | 
[V:2] c2B2A2f2 | 
[V:3] A2B2c2A2 | 
[V:4] f2g2f2f2 | 
[V:1] f2>f2e2d2 | 
[V:2] d2>d2c2B2 | 
[V:3] B2>B2G2G2 | 
[V:4] B2>B2c2G2 | 
[V:1] c2B2A4 | 
[V:2] A2d2c4- | 
[V:3] E2D2F2A2- | 
[V:4] A2B2F2f2- | 
[V:1] z8 | 
[V:2] c4z4 | 
[V:3] A2G2F2A2- | 
[V:4] f2e2d2f2- | 
[V:1] z2d4c2 | 
[V:2] f6e2 | 
[V:3] AGFED2G2 | 
[V:4] fedcB2c2 | 
[V:1] B2d2>c2BA | 
[V:2] d2f2>e2dc | 
[V:3] G2F2F3E | 
[V:4] G2d2B4- | 
[V:1] G2F2G4 | 
[V:2] B2c4=B2 | 
[V:3] D2C2D4 | 
[V:4] B2A2G4 | 
[V:1] z2A4A2 | 
[V:2] c2c4c2 | 
[V:3] z2F4F2 | 
[V:4] z2F4F2 | 
[V:1] G4A2A2 | 
[V:2] c4c4 | 
[V:3] E4F4 | 
[V:4] c4F2f2 | 
[V:1] B2G2AGFG | 
[V:2] z8 | 
[V:3] z8 | 
[V:4] d2e2f3e | 
[V:1] ABc2F4 | 
[V:2] z2e2f2d2 | 
[V:3] z2c2A2=B2 | 
[V:4] d2c2d4 | 
[V:1] G4c4 | 
[V:2] edcdefg2- | 
[V:3] c2>B2A2G2 | 
[V:4] c6e2 | 
[V:1] c4c4 | 
[V:2] gff4e2 | 
[V:3] A4G4 | 
[V:4] f2F2c4 | 
[V:1] A2d4d2 | 
[V:2] f4z4 | 
[V:3] z2B4B2 | 
[V:4] d2B4B2 | 
[V:1] c4d4 | 
[V:2] z2f4f2 | 
[V:3] A4B3A | 
[V:4] f2>e2dcB2 | 
[V:1] c2>B2A2A2 | 
[V:2] e4f4 | 
[V:3] GFG2F4 | 
[V:4] c4z2f2 | 
[V:1] B2G2A3B/ c/ | 
[V:2] z4z2A2 | 
[V:3] z4z2F2 | 
[V:4] d2e2fedc | 
[V:1] d2c2c4 | 
[V:2] B2G2AGFG | 
[V:3] D2E2F3E | 
[V:4] B2c2F4 | 
[V:1] z2e2f2d2 | 
[V:2] ABc4=B2 | 
[V:3] D2C2D4 | 
[V:4] z8 | 
[V:1] edcdefg2- | 
[V:2] c6d2 | 
[V:3] C4z2G2 | 
[V:4] z2c2A2B2 | 
[V:1] g2f4e2 | 
[V:2] c8 | 
[V:3] E2F2G4 | 
[V:4] c8 | 
[V:1] f2>e2d2cB | 
[V:2] A4B4 | 
[V:3] F8- | 
[V:4] d2>c2B2AG | 
[V:1] c8
[V:2] A8
[V:3] F8
[V:4] F8

